usr/share/icons/lubuntu/categories/32/applications-system.svg

<?xml version="1.0" encoding="UTF-8" standalone="no"?>
<!-- Created with Inkscape (http://www.inkscape.org/) -->

<svg
   xmlns:dc="http://purl.org/dc/elements/1.1/"
   xmlns:cc="http://creativecommons.org/ns#"
   xmlns:rdf="http://www.w3.org/1999/02/22-rdf-syntax-ns#"
   xmlns:svg="http://www.w3.org/2000/svg"
   xmlns="http://www.w3.org/2000/svg"
   xmlns:xlink="http://www.w3.org/1999/xlink"
   xmlns:sodipodi="http://sodipodi.sourceforge.net/DTD/sodipodi-0.dtd"
   xmlns:inkscape="http://www.inkscape.org/namespaces/inkscape"
   width="32"
   height="32"
   id="svg3330"
   version="1.1"
   inkscape:version="0.48.3.1 r9886"
   sodipodi:docname="applications-system.svg">
  <defs
     id="defs3332">
    <linearGradient
       gradientUnits="userSpaceOnUse"
       id="linearGradient1022-8-8-3-0-06-59-7-8-0-2"
       x2="0"
       y1="3.0069399"
       y2="11.02436">
      <stop
         offset="0"
         id="stop3001-0-9-4-9-02-6-2-81-9" />
      <stop
         offset="1"
         stop-color="#363636"
         id="stop3003-5-6-6-5-70-7-1-4-9" />
    </linearGradient>
    <linearGradient
       inkscape:collect="always"
       xlink:href="#linearGradient1022-8-8-3-0-06-59-7-8-0-2"
       id="linearGradient3035"
       gradientUnits="userSpaceOnUse"
       gradientTransform="matrix(2.3556973,0,0,2.3198273,-518.39273,-1229.807)"
       x1="227.2757"
       y1="530.55975"
       x2="227.2757"
       y2="543.49176" />
  </defs>
  <sodipodi:namedview
     id="base"
     pagecolor="#ffffff"
     bordercolor="#666666"
     borderopacity="1.0"
     inkscape:pageopacity="0.0"
     inkscape:pageshadow="2"
     inkscape:zoom="11.313709"
     inkscape:cx="17.378997"
     inkscape:cy="16.966645"
     inkscape:document-units="px"
     inkscape:current-layer="capa1"
     showgrid="true"
     inkscape:showpageshadow="false"
     inkscape:window-width="1280"
     inkscape:window-height="976"
     inkscape:window-x="0"
     inkscape:window-y="24"
     inkscape:window-maximized="1"
     inkscape:snap-to-guides="false"
     inkscape:snap-grids="true"
     showguides="true"
     inkscape:guide-bbox="true">
    <inkscape:grid
       type="xygrid"
       id="grid2990"
       empspacing="5"
       visible="true"
       enabled="true"
       snapvisiblegridlinesonly="true" />
  </sodipodi:namedview>
  <metadata
     id="metadata3335">
    <rdf:RDF>
      <cc:Work
         rdf:about="">
        <dc:format>image/svg+xml</dc:format>
        <dc:type
           rdf:resource="http://purl.org/dc/dcmitype/StillImage" />
        <dc:title />
      </cc:Work>
    </rdf:RDF>
  </metadata>
  <g
     inkscape:label="Capa 1"
     inkscape:groupmode="layer"
     id="capa1"
     transform="translate(0,-1020.3622)">
    <path
       sodipodi:nodetypes="ssssssssscccccccccccccccccccccccccccccc"
       inkscape:connector-curvature="0"
       id="path3006"
       d="m 5,1022.3622 c -2.216,0 -4,1.784 -4,4 l 0,22 c 0,2.216 1.784,4 4,4 l 22,0 c 2.216,0 4,-1.784 4,-4 l 0,-22 c 0,-2.216 -1.784,-4 -4,-4 z m 4,6 14,0 c 1.972714,0 2,2 2,2 l 0,10 c 0,0 0.06841,2 -2,2 l -2,0 c 0,0 -1,-0.063 -1,1 l 0,1 3,0 c 2.030059,0 2,2 2,2 0,0 -0.02902,0 -2,0 l -14,0 c -2.0041089,0 -2,0 -2,0 0,0 0.027267,-2 2,-2 l 3,0 0,-1 c 0,-1.054 -1,-1 -1,-1 l -2,0 c -1.9377519,0 -2,-2 -2,-2 l 0,-10 c 0,0 -0.03149,-2 2,-2 z m 1,2 c -1.0019512,0 -1,1 -1,1 l 0,8 c 0,0 0.030746,1 1,1 l 12,0 c 1.006267,0 1,-1 1,-1 l 0,-8 c 0,0 0.03049,-1 -1,-1 z"
       style="opacity:0.6;color:#000000;fill:#ffffff;fill-opacity:1;fill-rule:nonzero;stroke:none;stroke-width:1;marker:none;visibility:visible;display:inline;overflow:visible;enable-background:accumulate" />
    <path
       style="opacity:0.7;color:#000000;fill:url(#linearGradient3035);fill-opacity:1;fill-rule:evenodd;stroke:none;stroke-width:1.00139093;marker:none;visibility:visible;display:inline;overflow:visible;enable-background:accumulate"
       d="M 5,1 C 2.784,1 1,2.784 1,5 l 0,22 c 0,2.216 1.784,4 4,4 l 22,0 c 2.216,0 4,-1.784 4,-4 L 31,5 C 31,2.784 29.216,1 27,1 z m 4,6 14,0 c 1.972714,0 2,2 2,2 l 0,10 c 0,0 0.06841,2 -2,2 l -2,0 c 0,0 -1,-0.06296 -1,1 l 0,1 3,0 c 2.030059,0 2,2 2,2 0,0 -0.02902,0 -2,0 L 9,25 c -2.0041089,0 -2,0 -2,0 0,0 0.027267,-2 2,-2 l 3,0 0,-1 c 0,-1.053998 -1,-1 -1,-1 L 9,21 C 7.0622481,21 7,19 7,19 L 7,9 C 7,9 6.9685097,7 9,7 z m 1,2 C 8.9980488,9 9,10 9,10 l 0,8 c 0,0 0.030746,1 1,1 l 12,0 c 1.006267,0 1,-1 1,-1 l 0,-8 c 0,0 0.03049,-1 -1,-1 z"
       transform="translate(0,1020.3622)"
       id="path3028"
       inkscape:connector-curvature="0"
       sodipodi:nodetypes="ssssssssscccccccccccccccccccccccccccccc" />
  </g>
</svg>

<?xml version="1.0" encoding="UTF-8" standalone="no"?>
<!-- Created with Inkscape (http://www.inkscape.org/) -->

<svg
   xmlns:dc="http://purl.org/dc/elements/1.1/"
   xmlns:cc="http://creativecommons.org/ns#"
   xmlns:rdf="http://www.w3.org/1999/02/22-rdf-syntax-ns#"
   xmlns:svg="http://www.w3.org/2000/svg"
   xmlns="http://www.w3.org/2000/svg"
   xmlns:xlink="http://www.w3.org/1999/xlink"
   xmlns:sodipodi="http://sodipodi.sourceforge.net/DTD/sodipodi-0.dtd"
   xmlns:inkscape="http://www.inkscape.org/namespaces/inkscape"
   width="32"
   height="32"
   id="svg3330"
   version="1.1"
   inkscape:version="0.48.3.1 r9886"
   sodipodi:docname="applications-system.svg">
  <defs
     id="defs3332">
    <linearGradient
       gradientUnits="userSpaceOnUse"
       id="linearGradient1022-8-8-3-0-06-59-7-8-0-2"
       x2="0"
       y1="3.0069399"
       y2="11.02436">
      <stop
         offset="0"
         id="stop3001-0-9-4-9-02-6-2-81-9" />
      <stop
         offset="1"
         stop-color="#363636"
         id="stop3003-5-6-6-5-70-7-1-4-9" />
    </linearGradient>
    <linearGradient
       inkscape:collect="always"
       xlink:href="#linearGradient1022-8-8-3-0-06-59-7-8-0-2"
       id="linearGradient3035"
       gradientUnits="userSpaceOnUse"
       gradientTransform="matrix(2.3556973,0,0,2.3198273,-518.39273,-1229.807)"
       x1="227.2757"
       y1="530.55975"
       x2="227.2757"
       y2="543.49176" />
  </defs>
  <sodipodi:namedview
     id="base"
     pagecolor="#ffffff"
     bordercolor="#666666"
     borderopacity="1.0"
     inkscape:pageopacity="0.0"
     inkscape:pageshadow="2"
     inkscape:zoom="11.313709"
     inkscape:cx="24.128997"
     inkscape:cy="12.07648"
     inkscape:document-units="px"
     inkscape:current-layer="capa1"
     showgrid="true"
     inkscape:showpageshadow="false"
     inkscape:window-width="1280"
     inkscape:window-height="976"
     inkscape:window-x="0"
     inkscape:window-y="24"
     inkscape:window-maximized="1"
     inkscape:snap-to-guides="false"
     inkscape:snap-grids="true"
     showguides="true"
     inkscape:guide-bbox="true">
    <inkscape:grid
       type="xygrid"
       id="grid2990"
       empspacing="5"
       visible="true"
       enabled="true"
       snapvisiblegridlinesonly="true" />
  </sodipodi:namedview>
  <metadata
     id="metadata3335">
    <rdf:RDF>
      <cc:Work
         rdf:about="">
        <dc:format>image/svg+xml</dc:format>
        <dc:type
           rdf:resource="http://purl.org/dc/dcmitype/StillImage" />
        <dc:title />
      </cc:Work>
    </rdf:RDF>
  </metadata>
  <g
     inkscape:label="Capa 1"
     inkscape:groupmode="layer"
     id="capa1"
     transform="translate(0,-1020.3622)">
    <path
       id="path3038"
       d="m 5,1022.3622 c -2.216,0 -4,1.784 -4,4 l 0,22 c 0,2.216 1.784,4 4,4 l 22,0 c 2.216,0 4,-1.784 4,-4 l 0,-22 c 0,-2.216 -1.784,-4 -4,-4 l -22,0 z m 4,6 14,0 2,2 0,10 -2,2 -2,0 -1,1 2,0 3,3 -18,0 3,-3 2,0 -1,-1 -2,0 -2,-2 0,-10 2,-2 z m 1,2 -1,1 0,8 1,1 12,0 1,-1 0,-8 -1,-1 -12,0 z"
       style="opacity:0.6;color:#000000;fill:#ffffff;fill-opacity:1;fill-rule:nonzero;stroke:none;stroke-width:1;marker:none;visibility:visible;display:inline;overflow:visible;enable-background:accumulate"
       inkscape:connector-curvature="0" />
    <path
       style="opacity:0.69999999999999996;color:#000000;fill:url(#linearGradient3035);fill-opacity:1;fill-rule:evenodd;stroke:none;stroke-width:1.00139092999999990;marker:none;visibility:visible;display:inline;overflow:visible;enable-background:accumulate"
       d="M 5 1 C 2.784 1 1 2.784 1 5 L 1 27 C 1 29.216 2.784 31 5 31 L 27 31 C 29.216 31 31 29.216 31 27 L 31 5 C 31 2.784 29.216 1 27 1 L 5 1 z M 9 7 L 23 7 L 25 9 L 25 19 L 23 21 L 21 21 L 20 22 L 22 22 L 25 25 L 7 25 L 10 22 L 12 22 L 11 21 L 9 21 L 7 19 L 7 9 L 9 7 z M 10 9 L 9 10 L 9 18 L 10 19 L 22 19 L 23 18 L 23 10 L 22 9 L 10 9 z "
       transform="translate(0,1020.3622)"
       id="path3028" />
  </g>
</svg>
